lg/stetho.svg

<svg viewBox="0 0 256 256" xmlns="http://www.w3.org/2000/svg" preserveAspectRatio="xMidYMid" height="1em" width="1em">
  <path d="M256 128c0 70.692-57.308 128-128 128C57.308 256 0 198.692 0 128 0 57.308 57.308 0 128 0c70.692 0 128 57.308 128 128" fill="#4CAF50"/>
  <path d="M165.479 135.458c-2.318-7.852-7.065-13.516-12.091-19.513-.495-.591-.994-1.186-1.494-1.788-1.715-2.063-3.435-4.053-5.098-5.978-5.046-5.838-9.812-11.352-11.827-16.057-2.526-5.893-2.969-11.771-1.315-17.469 2.186-7.533 8.043-15.011 17.407-22.228a4.567 4.567 0 0 0-5.575-7.233c-20.102 15.494-23.529 30.573-21.411 42.298-3.817-1.48-8.61-2.429-12.761-2.265-12.417.488-23.49 8.81-29.237 16.084-1.563 1.978-1.331 5.18.647 6.744.839.662 1.941.652 2.932.652a4.56 4.56 0 0 0 3.586-1.735c3.749-4.745 13.021-11.95 23.199-12.351 6.659-.261 12.749 2.522 18.08 8.275.187.202.39.379.603.54 2.526 3.496 5.283 6.494 8.453 10.163 1.635 1.891 3.636 4.401 5.294 6.396.508.612 1.015 1.217 1.519 1.818 4.589 5.475 8.552 10.204 10.332 16.232 3.787 12.83-7.535 26.023-13.63 30.546-4.517-3.896-10.39-6.26-16.809-6.26-14.213 0-25.775 11.563-25.775 25.775 0 14.212 11.562 25.775 25.775 25.775 14.212 0 25.774-11.563 25.774-25.775 0-4.503-1.163-8.738-3.201-12.425 3.697-2.786 8.292-7.334 11.81-12.839 5.944-9.303 7.379-18.691 4.813-27.382Zm-39.196 70.268c-9.717 0-17.622-7.905-17.622-17.622 0-9.717 7.905-17.622 17.622-17.622 9.716 0 17.621 7.905 17.621 17.622 0 9.717-7.905 17.622-17.621 17.622Z" fill="#FFF"/>
  <path d="M135.43 187.928c0-.439-.033-.87-.092-1.293l2.69-1.409-1.423-3.782-3.062.863a9.379 9.379 0 0 0-1.843-1.837l.877-2.944-3.702-1.62-1.514 2.787a9.311 9.311 0 0 0-2.576.009l-1.571-2.677-3.71 1.603.964 2.88a9.381 9.381 0 0 0-1.812 1.82l-2.893-.906-1.671 3.679 2.782 1.562a9.43 9.43 0 0 0-.087 1.265c0 .437.032.866.09 1.287l-2.746 1.671 1.662 3.684 2.884-1.016a9.378 9.378 0 0 0 1.808 1.807l-.846 3.01 3.727 1.561 1.451-2.774c.422.059.853.092 1.291.092a9.3 9.3 0 0 0 1.323-.096l1.433 2.753 3.786-1.414-.882-3.161a9.402 9.402 0 0 0 1.706-1.694l3.131.675 1.329-3.817-2.61-1.166c.069-.457.106-.925.106-1.402Zm-9.37 1.622a1.63 1.63 0 1 1 0-3.261 1.63 1.63 0 0 1 0 3.261Z" fill="#FFF"/>
</svg>

<svg viewBox="0 0 256 256" version="1.1" xmlns="http://www.w3.org/2000/svg" preserveAspectRatio="xMidYMid" height="1em" width="1em">
  <g>
    <path d="M256,128 C256,198.692 198.692,256 128,256 C57.308,256 0,198.692 0,128 C0,57.308 57.308,0 128,0 C198.692,0 256,57.308 256,128" fill="#4CAF50"/>
    <path d="M165.479,135.458 C163.161,127.606 158.414,121.942 153.388,115.945 C152.893,115.354 152.394,114.759 151.894,114.157 C150.179,112.094 148.459,110.104 146.796,108.179 C141.75,102.341 136.984,96.827 134.969,92.122 C132.443,86.229 132,80.351 133.654,74.653 C135.84,67.12 141.697,59.642 151.061,52.425 C153.058,50.885 153.429,48.018 151.89,46.021 C150.351,44.024 147.483,43.653 145.486,45.192 C125.384,60.686 121.957,75.765 124.075,87.49 C120.258,86.01 115.465,85.061 111.314,85.225 C98.897,85.713 87.824,94.035 82.077,101.309 C80.514,103.287 80.746,106.489 82.724,108.053 C83.563,108.715 84.665,108.705 85.656,108.705 C87.005,108.705 88.341,108.11 89.242,106.97 C92.991,102.225 102.263,95.02 112.441,94.619 C119.1,94.358 125.19,97.141 130.521,102.894 C130.708,103.096 130.911,103.273 131.124,103.434 C133.65,106.93 136.407,109.928 139.577,113.597 C141.212,115.488 143.213,117.998 144.871,119.993 C145.379,120.605 145.886,121.21 146.39,121.811 C150.979,127.286 154.942,132.015 156.722,138.043 C160.509,150.873 149.187,164.066 143.092,168.589 C138.575,164.693 132.702,162.329 126.283,162.329 C112.07,162.329 100.508,173.892 100.508,188.104 C100.508,202.316 112.07,213.879 126.283,213.879 C140.495,213.879 152.057,202.316 152.057,188.104 C152.057,183.601 150.894,179.366 148.856,175.679 C152.553,172.893 157.148,168.345 160.666,162.84 C166.61,153.537 168.045,144.149 165.479,135.458 L165.479,135.458 Z M126.283,205.726 C116.566,205.726 108.661,197.821 108.661,188.104 C108.661,178.387 116.566,170.482 126.283,170.482 C135.999,170.482 143.904,178.387 143.904,188.104 C143.904,197.821 135.999,205.726 126.283,205.726 L126.283,205.726 Z" fill="#FFFFFF"/>
    <path d="M135.43,187.928 C135.43,187.489 135.397,187.058 135.338,186.635 L138.028,185.226 L136.605,181.444 L133.543,182.307 C133.017,181.612 132.396,180.993 131.7,180.47 L132.577,177.526 L128.875,175.906 L127.361,178.693 C126.951,178.638 126.533,178.607 126.108,178.607 C125.659,178.607 125.217,178.64 124.785,178.702 L123.214,176.025 L119.504,177.628 L120.468,180.508 C119.784,181.029 119.173,181.641 118.656,182.328 L115.763,181.422 L114.092,185.101 L116.874,186.663 C116.818,187.077 116.787,187.499 116.787,187.928 C116.787,188.365 116.819,188.794 116.877,189.215 L114.131,190.886 L115.793,194.57 L118.677,193.554 C119.194,194.236 119.803,194.844 120.485,195.361 L119.639,198.371 L123.366,199.932 L124.817,197.158 C125.239,197.217 125.67,197.25 126.108,197.25 C126.558,197.25 126.999,197.216 127.431,197.154 L128.864,199.907 L132.65,198.493 L131.768,195.332 C132.407,194.843 132.98,194.273 133.474,193.638 L136.605,194.313 L137.934,190.496 L135.324,189.33 C135.393,188.873 135.43,188.405 135.43,187.928 L135.43,187.928 Z M126.06,189.55 C125.159,189.55 124.429,188.82 124.429,187.919 C124.429,187.019 125.159,186.288 126.06,186.288 C126.961,186.288 127.69,187.019 127.69,187.919 C127.69,188.82 126.961,189.55 126.06,189.55 L126.06,189.55 Z" fill="#FFFFFF"/>
  </g>
</svg>
